resources/haticons/SVG/nativescript.svg

<!-- Generated by IcoMoon.io -->
<svg version="1.1" xmlns="http://www.w3.org/2000/svg" width="24" height="24" viewBox="0 0 24 24">
<title>nativescript</title>
<path fill="#3655ff" d="M1.77 1.76c1.018-1.067 2.444-1.737 4.026-1.76l0.004-0h12.6c1.37 0 2.65 0.6 3.83 1.76 1.072 0.981 1.749 2.379 1.77 3.936l0 0.004v12.77c0 1.34-0.56 2.58-1.68 3.73-1.027 1.082-2.466 1.766-4.064 1.8l-0.006 0h-12.38c-1.576-0.016-3.011-0.608-4.107-1.576l0.007 0.006c-1.080-0.98-1.67-2.4-1.77-4.3v-12.4c-0-0.017-0-0.037-0-0.057 0-1.556 0.683-2.954 1.765-3.908l0.006-0.005zM8.020 10.060l7.93 10.060h2.12c0.49-0.060 0.88-0.2 1.17-0.43 0.3-0.23 0.5-0.56 0.64-1v-4.94c0.080-0.95 0.67-1.54 1.77-1.75-1.1-0.4-1.69-1.020-1.77-1.86v-4.72c-0.12-0.44-0.33-0.8-0.64-1.070-0.29-0.264-0.667-0.437-1.084-0.47l-0.006-0h-2.15v10.2l-7.98-10.21h-2.23c-0.56 0.1-0.97 0.3-1.25 0.6s-0.46 0.78-0.54 1.43v4.85c-0.35 0.69-0.9 1.1-1.65 1.25 0.85 0.16 1.4 0.61 1.65 1.36v4.77c0.020 0.55 0.2 1 0.54 1.37 0.33 0.36 0.7 0.53 1.1 0.5h2.36z"></path>
</svg>

<svg xmlns="http://www.w3.org/2000/svg" width="24" height="24"><path fill="#3655ff" d="M1.77 1.76A5.663 5.663 0 0 1 5.796 0H18.4c1.37 0 2.65.6 3.83 1.76A5.419 5.419 0 0 1 24 5.696V18.47c0 1.34-.56 2.58-1.68 3.73a5.758 5.758 0 0 1-4.064 1.8H5.87a6.278 6.278 0 0 1-4.107-1.576l.007.006C.69 21.45.1 20.03 0 18.13V5.73v-.057c0-1.556.683-2.954 1.765-3.908l.006-.005zm6.25 8.3l7.93 10.06h2.12c.49-.06.88-.2 1.17-.43.3-.23.5-.56.64-1v-4.94c.08-.95.67-1.54 1.77-1.75-1.1-.4-1.69-1.02-1.77-1.86V5.42c-.12-.44-.33-.8-.64-1.07a1.822 1.822 0 0 0-1.084-.47H16v10.2L8.02 3.87H5.79c-.56.1-.97.3-1.25.6S4.08 5.25 4 5.9v4.85c-.35.69-.9 1.1-1.65 1.25.85.16 1.4.61 1.65 1.36v4.77c.02.55.2 1 .54 1.37.33.36.7.53 1.1.5H8z"/></svg>
